public/images/icons/blog.svg

<?xml version="1.0" encoding="UTF-8"?>
<svg width="42px" height="48px" viewBox="0 0 42 48" version="1.1" xmlns="http://www.w3.org/2000/svg" xmlns:xlink="http://www.w3.org/1999/xlink">
    <!-- Generator: Sketch 57.1 (83088) - https://sketch.com -->
    <title>icons/guides</title>
    <desc>Created with Sketch.</desc>
    <g id="Page-1" stroke="none" stroke-width="1" fill="none" fill-rule="evenodd">
        <g id="Wide" transform="translate(-659.000000, -7536.000000)" fill="#FFFFFF">
            <g id="section-shipping" transform="translate(0.000000, 7080.000000)">
                <g id="icons/guides-+active" transform="translate(648.000000, 448.000000)">
                    <g id="atlas" transform="translate(11.000000, 8.000000)">
                        <path d="M9.00119366,42 C7.20047746,42 6,40.8 6,39 C6,37.2 7.50059683,36 9.00119366,36 L38.9502927,36 C38.7692832,37.5225 38.7852271,40.535625 39,42 L9.00119366,42 Z" id="Path" fill-rule="nonzero" opacity="0.4"></path>
                        <path d="M21,9.1228125 C20.2790625,9.82125 19.0528125,12.3496875 18.8034375,16.5 L23.1975,16.5 C22.9471875,12.350625 21.7209375,9.82125 21,9.1228125 Z M29.848125,19.5 L26.1834375,19.5 C26.04375,22.03125 25.5703125,24.3140625 24.85125,26.1009375 C27.4916404,24.8446657 29.3556751,22.3822514 29.848125,19.5 Z M29.848125,16.5 C29.355376,13.6178781 27.4914346,11.1555869 24.85125,9.8990625 C25.57125,11.6859375 26.04375,13.96875 26.1834375,16.5 L29.848125,16.5 Z M17.14875,26.1009375 C16.42875,24.3140625 15.95625,22.03125 15.8165625,19.5 L12.151875,19.5 C12.6443249,22.3822514 14.5083596,24.8446657 17.14875,26.1009375 L17.14875,26.1009375 Z M23.1965625,19.5 L18.8025,19.5 C19.051875,23.649375 20.278125,26.17875 20.9990625,26.8771875 C21.7209375,26.17875 22.9471875,23.649375 23.1965625,19.5 Z M9,36 L39.75,36 C40.9926407,36 42,34.9926407 42,33.75 L42,3 C42,1.34314575 40.6568542,0 39,0 L9,0 C4.02943725,0 0,4.02943725 0,9 L0,39 C0,43.9705627 4.02943725,48 9,48 L39.75,48 C40.9926407,48 42,46.9926407 42,45.75 L42,44.25 C42,43.0073593 40.9926407,42 39.75,42 L9,42 C7.2,42 6,40.8 6,39 C6,37.2 7.5,36 9,36 Z M21,6 C27.627417,6 33,11.372583 33,18 C33,24.627417 27.627417,30 21,30 C14.372583,30 9,24.627417 9,18 C9,11.372583 14.372583,6 21,6 Z M17.14875,9.8990625 C14.5083596,11.1553343 12.6443249,13.6177486 12.151875,16.5 L15.8165625,16.5 C15.95625,13.96875 16.42875,11.6859375 17.14875,9.8990625 L17.14875,9.8990625 Z" id="Shape" fill-rule="nonzero"></path>
                    </g>
                </g>
            </g>
        </g>
    </g>
</svg>

<svg width="42" height="48" xmlns="http://www.w3.org/2000/svg"><g fill-rule="nonzero" fill="#FFF"><path d="M9.001 42C7.201 42 6 40.8 6 39s1.5-3 3.001-3h29.95c-.182 1.523-.166 4.536.049 6H9.001z" opacity=".4"/><path d="M21 9.123c-.72.698-1.947 3.227-2.197 7.377h4.395c-.25-4.15-1.477-6.679-2.198-7.377zM29.848 19.5h-3.665c-.14 2.531-.613 4.814-1.332 6.6a8.986 8.986 0 0 0 4.997-6.6zm0-3a8.988 8.988 0 0 0-4.997-6.6c.72 1.786 1.193 4.069 1.332 6.6h3.665zm-12.7 9.6c-.72-1.786-1.192-4.069-1.331-6.6h-3.665a8.986 8.986 0 0 0 4.997 6.6zm6.049-6.6h-4.395c.25 4.15 1.476 6.679 2.197 7.377.722-.698 1.948-3.228 2.198-7.377zM9 36h30.75A2.25 2.25 0 0 0 42 33.75V3a3 3 0 0 0-3-3H9a9 9 0 0 0-9 9v30a9 9 0 0 0 9 9h30.75A2.25 2.25 0 0 0 42 45.75v-1.5A2.25 2.25 0 0 0 39.75 42H9c-1.8 0-3-1.2-3-3s1.5-3 3-3zM21 6c6.627 0 12 5.373 12 12s-5.373 12-12 12S9 24.627 9 18 14.373 6 21 6zm-3.851 3.9a8.986 8.986 0 0 0-4.997 6.6h3.665c.14-2.531.612-4.814 1.332-6.6z"/></g></svg>
